public/img/devices/speaker-off.svg

<svg height="512" viewBox="0 0 64 64" width="512" xmlns="http://www.w3.org/2000/svg"><path d="m51 1h-38a1 1 0 0 0 -1 1v60a1 1 0 0 0 1 1h38a1 1 0 0 0 1-1v-60a1 1 0 0 0 -1-1zm-37 2h36v55h-36zm36 58h-36v-1h36z"/><path d="m39 4a10 10 0 1 0 10 10 10.011 10.011 0 0 0 -10-10zm0 18a8 8 0 1 1 8-8 8.009 8.009 0 0 1 -8 8z"/><path d="m39 9a5 5 0 1 0 5 5 5.006 5.006 0 0 0 -5-5zm0 8a3 3 0 1 1 3-3 3 3 0 0 1 -3 3z"/><path d="m32 25a16 16 0 1 0 16 16 16.019 16.019 0 0 0 -16-16zm0 30a14 14 0 1 1 14-14 14.015 14.015 0 0 1 -14 14z"/><path d="m32 29a12 12 0 1 0 12 12 12.013 12.013 0 0 0 -12-12zm0 22a10 10 0 1 1 10-10 10.011 10.011 0 0 1 -10 10z"/><path d="m32 35a6 6 0 1 0 6 6 6.006 6.006 0 0 0 -6-6zm0 10a4 4 0 1 1 4-4 4 4 0 0 1 -4 4z"/><path d="m17 7h4a1 1 0 0 0 0-2h-4a1 1 0 0 0 0 2z"/><path d="m17 10h2a1 1 0 0 0 0-2h-2a1 1 0 0 0 0 2z"/><path d="m24 7h1a1 1 0 0 0 0-2h-1a1 1 0 0 0 0 2z"/></svg>

<svg xmlns="http://www.w3.org/2000/svg" width="40" height="62" viewBox="0 0 40 62">
  <g id="speaker-off" transform="translate(-12 -1)">
    <path id="Path_1" data-name="Path 1" d="M51,1H13a1,1,0,0,0-1,1V62a1,1,0,0,0,1,1H51a1,1,0,0,0,1-1V2A1,1,0,0,0,51,1ZM14,3H50V58H14ZM50,61H14V60H50Z" fill="#fff"/>
    <path id="Path_2" data-name="Path 2" d="M39,4A10,10,0,1,0,49,14,10,10,0,0,0,39,4Zm0,18a8,8,0,1,1,8-8A8,8,0,0,1,39,22Z" fill="#fff"/>
    <path id="Path_3" data-name="Path 3" d="M39,9a5,5,0,1,0,5,5,5,5,0,0,0-5-5Zm0,8a3,3,0,1,1,3-3A3,3,0,0,1,39,17Z" fill="#fff"/>
    <path id="Path_4" data-name="Path 4" d="M32,25A16,16,0,1,0,48,41,16,16,0,0,0,32,25Zm0,30A14,14,0,1,1,46,41,14,14,0,0,1,32,55Z" fill="#fff"/>
    <path id="Path_5" data-name="Path 5" d="M32,29A12,12,0,1,0,44,41,12,12,0,0,0,32,29Zm0,22A10,10,0,1,1,42,41,10,10,0,0,1,32,51Z" fill="#fff"/>
    <path id="Path_6" data-name="Path 6" d="M32,35a6,6,0,1,0,6,6A6,6,0,0,0,32,35Zm0,10a4,4,0,1,1,4-4A4,4,0,0,1,32,45Z" fill="#fff"/>
    <path id="Path_7" data-name="Path 7" d="M17,7h4a1,1,0,0,0,0-2H17a1,1,0,0,0,0,2Z" fill="#fff"/>
    <path id="Path_8" data-name="Path 8" d="M17,10h2a1,1,0,0,0,0-2H17a1,1,0,0,0,0,2Z" fill="#fff"/>
    <path id="Path_9" data-name="Path 9" d="M24,7h1a1,1,0,0,0,0-2H24a1,1,0,0,0,0,2Z" fill="#fff"/>
  </g>
</svg>
